X: 1
T:The Tar Road to Sligo
M:6/8
L:1/8
Q:80
C:Arranged by T. Tully
S:Jig
K:HP
e|
{g}fdB{g}Bcd|
{g}ecA{g}BAG|
A{g}A{e}A{g}ABc|  !
d{e}d{c}d{g}efg{a}fdB{g}Bcd|
{g}ecA{g}BAG|
A{g}A{e}A{g}Aag|  !
{a}fdc{g}d2:|
B|
{g}Adf{g}Adf|
g{a}fg{a}efg|  !
afd{g}dcd|
{g}Bed{g}cB{G}A|1 {g}Adf{g}Adf|
g{a}fg{a}efg|  !
a{g}a{g}age{A}e|
{g}edc{g}d2B:|2
{g}fdA{g}fdA|  !
{a}gdA{a}gdA|
a{g}a{g}age{A}e|
{g}edc{g}d2|]  !
